!!!OTL: Guijiang suiji tan you wan
!!!ARE: Asia, China,ÿGuangxi, Wuzhou
!! II, 528
!!!SCT: C1528C
!!!YEM: Copyright 1995, estate of Helmut Schaffrath.
**kern
*ICvox
*Ivox
!! Mixed meters:  2/4; 3/4; 4/4
*M3/4
*k[f#c#g#]
*A:
{2ff#
8cc#
16cc#
16cc#
=1
*M2/4
8cc#
8ee
8ff#
16ee
16cc#
=2
8b
8ee
8ff#
16ee
16cc#}
=3
{4ff#
8.ee
16cc#
=4
8.cc#
16ee
8ff#
8aa
=5
16cc#
8b
16a
4f#}
=6
{8f#
8a
8cc#
8a
=7
*M3/4
8b
16b
16cc#
8b
8a
4a}
=8
{2ff#
8cc#
8cc#
=9
*M2/4
8cc#
8ee
8ff#
16ee
16cc#
=10
8b
8ee
8ff#
16ee
16cc#}
=11
{4ff#
8.ee
16cc#
=12
8.cc#
16ee
8ff#
8aa
=13
*M3/4
8cc#
4b
8a
4f#}
=14
*M2/4
{2ff#
=15
2ff#}
=16
{2ff#
=17
4aa
8.ee
16cc#
=18
8.cc#
16ee
8ff#
8aa
=19
*M3/4
8cc#
4b
8a
4f#}
=20
*M2/4
{8f#
8a
8cc#
16a
16f#
=21
8f#
8b
8cc#
16b
16a
=22
8b
8a
4a
=23
2ff#
=24
2ff#}
==
!!!AGN: Haozi, Chuangong haozi, Shangtan diao
!!!AMT: irregular
!!!AIN: vox
!!!EED: Helmut Schaffrath
!!!EEV: 1.0
*-
